src/main/webapp/scripts/pdfjs/v54530/web/images/altText_add.svg

<svg fill="none" height="13" viewBox="0 0 12 13" width="12" xmlns="http://www.w3.org/2000/svg"><path d="m5.375 7.625v4.25c0 .1658.06585.3247.18306.4419.11721.1173.27618.1831.44194.1831s.32473-.0658.44194-.1831c.11721-.1172.18306-.2761.18306-.4419v-4.25l.5-.5h4.25c.1658 0 .3247-.06585.4419-.18306.1173-.11721.1831-.27618.1831-.44194s-.0658-.32473-.1831-.44194c-.1172-.11721-.2761-.18306-.4419-.18306h-4.25l-.5-.5v-4.25c0-.16576-.06585-.324731-.18306-.441942-.11721-.11721-.27618-.183058-.44194-.183058s-.32473.065848-.44194.183058c-.11721.117211-.18306.276182-.18306.441942v4.25l-.5.5h-4.25c-.16576 0-.324731.06585-.441942.18306-.11721.11721-.183058.27618-.183058.44194s.065848.32473.183058.44194c.117211.11721.276182.18306.441942.18306h4.137z" fill="#000"/></svg>

<svg width="12" height="13" viewBox="0 0 12 13" fill="none" xmlns="http://www.w3.org/2000/svg">
   <path d="M5.375 7.625V11.875C5.375 12.0408 5.44085 12.1997 5.55806 12.3169C5.67527 12.4342 5.83424 12.5 6 12.5C6.16576 12.5 6.32473 12.4342 6.44194 12.3169C6.55915 12.1997 6.625 12.0408 6.625 11.875V7.625L7.125 7.125H11.375C11.5408 7.125 11.6997 7.05915 11.8169 6.94194C11.9342 6.82473 12 6.66576 12 6.5C12 6.33424 11.9342 6.17527 11.8169 6.05806C11.6997 5.94085 11.5408 5.875 11.375 5.875H7.125L6.625 5.375V1.125C6.625 0.95924 6.55915 0.800269 6.44194 0.683058C6.32473 0.565848 6.16576 0.5 6 0.5C5.83424 0.5 5.67527 0.565848 5.55806 0.683058C5.44085 0.800269 5.375 0.95924 5.375 1.125V5.375L4.875 5.875H0.625C0.45924 5.875 0.300269 5.94085 0.183058 6.05806C0.065848 6.17527 0 6.33424 0 6.5C0 6.66576 0.065848 6.82473 0.183058 6.94194C0.300269 7.05915 0.45924 7.125 0.625 7.125H4.762L5.375 7.625Z" fill="black"/>
</svg>
